symbols/web/contact_page/materialsymbolsrounded/contact_page_grad200fill1_40px.svg

<svg xmlns="http://www.w3.org/2000/svg" height="40" width="40"><path d="M20 22.833q1.542 0 2.625-1.062 1.083-1.063 1.083-2.604 0-1.542-1.083-2.625-1.083-1.084-2.625-1.084t-2.604 1.084q-1.063 1.083-1.063 2.625 0 1.541 1.063 2.604 1.062 1.062 2.604 1.062Zm-7 7.5h14.042v-1.291q0-1.125-.625-2.042-.625-.917-1.625-1.375-1.125-.458-2.313-.729-1.187-.271-2.479-.271t-2.479.271q-1.188.271-2.271.729-1.042.458-1.646 1.375-.604.917-.604 2.042Zm17.667 7.209H9.333q-1.416 0-2.458-1.042-1.042-1.042-1.042-2.458V5.958q0-1.416 1.042-2.458 1.042-1.042 2.458-1.042H22.25q.708 0 1.354.271.646.271 1.146.771l8.375 8.375q.458.458.75 1.125t.292 1.375v19.667q0 1.416-1.042 2.458-1.042 1.042-2.458 1.042Z"/></svg>

<svg xmlns="http://www.w3.org/2000/svg" height="40" width="40"><path d="M20 22.833Q21.542 22.833 22.625 21.771Q23.708 20.708 23.708 19.167Q23.708 17.625 22.625 16.542Q21.542 15.458 20 15.458Q18.458 15.458 17.396 16.542Q16.333 17.625 16.333 19.167Q16.333 20.708 17.396 21.771Q18.458 22.833 20 22.833ZM13 30.333H27.042V29.042Q27.042 27.917 26.417 27Q25.792 26.083 24.792 25.625Q23.667 25.167 22.479 24.896Q21.292 24.625 20 24.625Q18.708 24.625 17.521 24.896Q16.333 25.167 15.25 25.625Q14.208 26.083 13.604 27Q13 27.917 13 29.042ZM30.667 37.542H9.333Q7.917 37.542 6.875 36.5Q5.833 35.458 5.833 34.042V5.958Q5.833 4.542 6.875 3.5Q7.917 2.458 9.333 2.458H22.25Q22.958 2.458 23.604 2.729Q24.25 3 24.75 3.5L33.125 11.875Q33.583 12.333 33.875 13Q34.167 13.667 34.167 14.375V34.042Q34.167 35.458 33.125 36.5Q32.083 37.542 30.667 37.542Z"/></svg>
